X: 13
T:The Spanheim. From the 18th Ed. Vol 2
T:John Malchair's Third Collection of Tunes
%%VWML:Malchair-3619-p13
F:https://www.vwml.org/record/Malchair/3619/p13
F:www.vwml.org/topics/historic-dance-and-tune-books/Malchair
Z:Steve Mansfield Jan 2020
M:6/2
L:1/4
K:Am
A | e>fe dcd | e3 A2B | c>BA dBc | B3-B3 || e/f/ | g>ag ece | g3 c>Bc |
d>ed BGB | d3 B2c/d/ | eEc B>A^G | A3-A3 || A | (Ac)A (Ac)A | (Bd)B (Bd)B | (ce)c def | e3-e3 ||
e/f/ | g3 d2e | f3 c2d | e>fe dBc | d>ed cBA | ^GeB B2A | A3-A3 ||
W:
T:May Day. Ed. 18
T:John Malchair's Third Collection of Tunes
%%VWML:Malchair-3619-p13
F:https://www.vwml.org/record/Malchair/3619/p13
F:www.vwml.org/topics/historic-dance-and-tune-books/Malchair
Z:Steve Mansfield Jan 2020
M:6/2
L:1/4
K:G
d | gab efg | fga fed | cde ABc | EAG FED | gab efg | fga fed | ^cde Adc | d3-d2 || e/f/ | 
gBd gdB | ecA ecA | dBG dBG | EAG FED | gBd gdB | ecA ecA | Bcd EAF | G3-G2 |]
W:
T:Reuben. Ed. 18
T:John Malchair's Third Collection of Tunes
%%VWML:Malchair-3619-p13
F:https://www.vwml.org/record/Malchair/3619/p13
F:www.vwml.org/topics/historic-dance-and-tune-books/Malchair
Z:Steve Mansfield Jan 2020
M:C|
L:1/4
K:D
Adde | c>dee fd-dD | F2 A2 || A>BA(G/F/) | E3E | FD-DE | F2 A2 |]

